X:1
T:Carry It On
M:2/2
L:1/4
K:C
 C C| G4| z G/2G/2 F F| E E3| z2 C C| D4| z D E F/2F/2| E E3| z2| C C|\
 G4| z2 G3/2 A/2| E C3| z2 E/2D/2 C| D4-| D2 D/2C/2 D| E3- D-| C2 C/2B,/2 C|\
 D4-| D2 D/2D/2 C| C4-| C2||
